X:7
T:Vals i form etter Thorvald Trondsgrd 2
R:Waltz
S:Folldal Spellmannslag
N:http://home.no.net/janwes/folldal/
D:slift (20)
O:Norge - Norway - Norvge
A:Hedmark
Z:transcription (d'oreille) : <anamnese@laposte.net>
M:3/4
L:1/4
Q:3/4=125
K:F
AB {B}A2 G2 | F2E2D2 | DEFG A2 | efef d2 | fag=b a2 | ageg f2 | ef ed ^ce | d4 A2 :|"/.../" z6 |
